static/img/svg/bx-bar-chart.svg

<svg xmlns="http://www.w3.org/2000/svg" width="24" height="24"><path d="M9 5h2v16H9zM13 7h2v14h-2zM17 3h2v18h-2zM5 12h2v9H5z"/></svg>

<svg xmlns="http://www.w3.org/2000/svg" width="24" height="24" viewBox="0 0 24 24"><path d="M9 5H11V21H9zM13 7H15V21H13zM17 3H19V21H17zM5 12H7V21H5z"/></svg>
